svg/furkot/tripit.svg

<svg viewBox="0 0 512 512" xmlns="http://www.w3.org/2000/svg"><path d="m309.555 275.594c-2.114-5.478-5.11-10.649-8.919-15.344 8.51-5.003 15.227-8.945 15.227-8.945l76.237-45.117c-.881-2.709-1.367-5.607-1.367-8.612 0-15.437 12.544-27.945 28.027-27.945s28.032 12.508 28.032 27.945c0 15.426-12.549 27.934-28.032 27.934-6.298 0-12.094-2.099-16.779-5.601-16.952 10.885-40.739 25.493-77.071 46.746zm11.961 64.676c-2.607.742-5.151 2.161-7.599 4.076-.937-.538-3.271-1.859-3.271-1.859-2.53-1.326-5.484-2.877-12.851-7.777-3.682 4.162-7.911 7.931-12.58 11.207l12.211 7.22c.015.01 5.954 3.445 8.008 4.633-.42 1.823-.743 3.579-.743 5.156 0 2.197.302 4.408.912 6.584 3.578 12.637 16.547 20.086 28.912 16.599 5.863-1.648 10.757-5.529 13.768-10.91 2.012-3.554 3.057-7.588 3.057-11.664 0-2.242-.303-4.48-.922-6.661-3.574-12.626-16.558-20.086-28.902-16.604zm-22.185-47.437c-2.985-26.383-30.633-44.938-61.783-41.446-31.14 3.502-53.965 27.725-50.985 54.113 2.985 26.378 30.648 44.938 61.783 41.436 31.139-3.486 53.97-27.714 50.985-54.103zm152.238-25.482c-16.118 0-29.645 10.941-33.618 25.769-31.862-.502-68.096-.86-104.817-1.009.143 2.217.154 4.45.036 6.697-.215 3.738-.824 7.394-1.772 10.957 37.136-.143 73.8-.502 106.005-.993 3.128 15.964 17.229 28.016 34.166 28.016 19.235 0 34.831-15.539 34.831-34.713s-15.596-34.724-34.831-34.724zm-263.527 71.547c-2.334-2.514-4.382-5.202-6.195-7.992-13.87 8.514-25.923 16.158-35.912 22.789-5.283-5.023-12.042-7.716-19.189-7.44-7.112.282-13.696 3.303-18.535 8.5-4.823 5.201-7.347 11.965-7.076 19.061.579 14.638 12.98 26.082 27.669 25.524 14.372-.553 25.631-12.217 25.631-26.537l-.026-1.03c-.056-1.617-.445-3.409-.927-5.278.768-.446 20.393-11.812 39.481-22.876-1.726-1.48-3.369-3.052-4.921-4.721zm-99.645-120.279c4.72 3.164 10.388 4.316 15.979 3.22 2.939-.558 5.771-2.007 8.5-4.075 1.356 1.055 27.028 20.92 27.028 20.92l42.179 32.497.041.031c3.046-5.044 6.84-9.698 11.207-13.865l-.281-.21c-37.366-28.985-59.828-43.715-72.285-51.072.466-1.777.825-3.492.825-5.033l-.4-4.071c-2.247-11.474-13.45-18.995-24.965-16.747-5.586 1.085-10.414 4.275-13.593 8.985-2.391 3.538-3.641 7.614-3.641 11.792 0 1.367.133 2.739.415 4.111 1.096 5.555 4.291 10.358 8.991 13.517zm151.071-25.764c-.405 12.513-.738 28.483-.968 43.837 2.806-.307 5.652-.476 8.535-.476 2.836 0 5.642.164 8.402.476-.236-15.354-.548-31.303-.953-43.837 19.282-3.594 33.199-20.035 33.199-39.634 0-22.369-18.269-40.581-40.72-40.581s-40.699 18.212-40.699 40.581c0 19.599 13.916 36.05 33.204 39.634zm-65.951 105.585c.107-2.094.338-4.168.701-6.211-32.01.2-62.628.543-88.99.978-2.781-13.722-14.941-24.054-29.512-24.054-16.63 0-30.116 13.44-30.116 30.024 0 16.568 13.486 29.998 30.116 29.998 13.291 0 24.56-8.596 28.544-20.516 26.496.441 57.323.778 89.595.983-.523-3.686-.645-7.434-.338-11.202z"/></svg>

<svg xmlns="http://www.w3.org/2000/svg" viewBox="0 0 512 512"><path d="M309.555 275.594C307.441 270.116 304.445 264.945 300.636 260.25 309.146 255.247 315.863 251.305 315.863 251.305L392.1 206.188C391.219 203.479 390.733 200.581 390.733 197.576 390.733 182.139 403.277 169.631 418.76 169.631S446.792 182.139 446.792 197.576C446.792 213.002 434.243 225.51 418.76 225.51 412.462 225.51 406.666 223.411 401.981 219.909 385.029 230.794 361.242 245.402 324.91 266.655L309.555 275.594ZM321.516 340.27C318.909 341.012 316.365 342.431 313.917 344.346 312.98 343.808 310.646 342.487 310.646 342.487 308.116 341.161 305.162 339.61 297.795 334.71 294.113 338.872 289.884 342.641 285.215 345.917L297.426 353.137C297.441 353.147 303.38 356.582 305.434 357.77 305.014 359.593 304.691 361.349 304.691 362.926 304.691 365.123 304.993 367.334 305.603 369.51 309.181 382.147 322.15 389.596 334.515 386.109 340.378 384.461 345.272 380.58 348.283 375.199 350.295 371.645 351.34 367.611 351.34 363.535 351.34 361.293 351.037 359.055 350.418 356.874 346.844 344.248 333.86 336.788 321.516 340.27ZM299.331 292.833C296.346 266.45 268.698 247.895 237.548 251.387 206.408 254.889 183.583 279.112 186.563 305.5 189.548 331.878 217.211 350.438 248.346 346.936 279.485 343.45 302.316 319.222 299.331 292.833ZM451.569 267.351C435.451 267.351 421.924 278.292 417.951 293.12 386.089 292.618 349.855 292.26 313.134 292.111 313.277 294.328 313.288 296.561 313.17 298.808 312.955 302.546 312.346 306.202 311.398 309.765 348.534 309.622 385.198 309.263 417.403 308.772 420.531 324.736 434.632 336.788 451.569 336.788 470.804 336.788 486.4 321.249 486.4 302.075S470.804 267.351 451.569 267.351ZM188.042 338.898C185.708 336.384 183.66 333.696 181.847 330.906 167.977 339.42 155.924 347.064 145.935 353.695 140.652 348.672 133.893 345.979 126.746 346.255 119.634 346.537 113.05 349.558 108.211 354.755 103.388 359.956 100.864 366.72 101.135 373.816 101.714 388.454 114.115 399.898 128.804 399.34 143.176 398.787 154.435 387.123 154.435 372.803L154.409 371.773C154.353 370.156 153.964 368.364 153.482 366.495 154.25 366.049 173.875 354.683 192.963 343.619 191.237 342.139 189.594 340.567 188.042 338.898ZM88.397 218.619C93.117 221.783 98.785 222.935 104.376 221.839 107.315 221.281 110.147 219.832 112.876 217.764 114.232 218.819 139.904 238.684 139.904 238.684L182.083 271.181 182.124 271.212C185.17 266.168 188.964 261.514 193.331 257.347L193.05 257.137C155.684 228.152 133.222 213.422 120.765 206.065 121.231 204.288 121.59 202.573 121.59 201.032L121.19 196.961C118.943 185.487 107.74 177.966 96.225 180.214 90.639 181.299 85.811 184.489 82.632 189.199 80.241 192.737 78.991 196.813 78.991 200.991 78.991 202.358 79.124 203.73 79.406 205.102 80.502 210.657 83.697 215.46 88.397 218.619ZM239.468 192.855C239.063 205.368 238.73 221.338 238.5 236.692 241.306 236.385 244.152 236.216 247.035 236.216 249.871 236.216 252.677 236.38 255.437 236.692 255.201 221.338 254.889 205.389 254.484 192.855 273.766 189.261 287.683 172.82 287.683 153.221 287.683 130.852 269.414 112.64 246.963 112.64S206.264 130.852 206.264 153.221C206.264 172.82 220.18 189.271 239.468 192.855ZM173.517 298.44C173.624 296.346 173.855 294.272 174.218 292.229 142.208 292.429 111.59 292.772 85.228 293.207 82.447 279.485 70.287 269.153 55.716 269.153 39.086 269.153 25.6 282.593 25.6 299.177 25.6 315.745 39.086 329.175 55.716 329.175 69.007 329.175 80.276 320.579 84.26 308.659 110.756 309.1 141.583 309.437 173.855 309.642 173.332 305.956 173.21 302.208 173.517 298.44Z"/></svg>
